!!!OTL:Wunsch und Entsagung.
!!!OTL-incipit:DER PAPST LEBT HERRLICH IN DER WELT
!!!COM: Volksweise
!!!ARE: Europa, Mitteleuropa, Deutschland
!!!SCT: F0220
!!!TXL: @@DE
!!!YEM: Copyright 1995, estate of Helmut Schaffrath.
**kern	**text
*ICvox	*
*clefG2	*
*M4/4	*
*met(c)	*
*k[]	*
*C:	*
!LO:TX:a:t=Munter, doch gemessen.	!
{8g	Der
=1	=1
4.cc	Papst
8c	lebt
8c	herrlich
8c	.
8e	in
8c	der
=2	=2
2g	Welt,
4r	.
8r}	.
{8g	es
=3	=3
4.dd	fehlt
8cc	ihm
8b	nicht
8a	an
8g	Ab-
8f	-laß-
=4	=4
2e	-geld,
8r}	.
{8g	auch
8a	trinkt
8b/	er
=5	=5
4cc	täg-
4g	-lich
4dd	sei-
4g	-nen
=6	=6
2ee	Wein:
8r}	.
{8dd	ich
8cc	möch-
8b	-te
=7	=7
4a	auch
4dd	der
4cc	Papst
4b	wohl
=8	=8
2cc	sein!
8r}	.
!LO:TX:a:t=Chor.	!
{8g	Auch
8a	trinkt
8b/	er
=9	=9
4cc/	täg-
4g	-lich
4dd/	sei-
4g	-nen
=10	=10
2ee/	Wein:
8r}	.
{8dd/	ich
8cc/	möchte
8b/	.
=11	=11
4a	auch
4dd/	der
4cc/	Papst
4b/	wohl
=12	=12
2cc/	sein!
4r	.
8r}	.
==	==
!!!AGN: Trink - Lied, Liebe, Spott
!!!ONB: ESAC (Essen Associative Code) Database: FINK
!!!AMT: simple quadruple
!!!AIN: vox
!!!EED: Helmut Schaffrath
!!!EEV: 1.0
!!Text: Volkslied
!!!source: Musikalischer Hausschatz der Deutschen. Eine Sammlung von über 1000 Liedern und Gesängen mit Singstimmen und Klavierbegleitung. Leipzig, Litterarisches Verlags-Haus.
!!!page: 128
!!!ENC: Anna Maria Matuszewska
!!!EEV: 2025/03/12
*-	*-
